Obsidian/actions/24s/align-vertical-bottom.svg

<svg height="24" viewBox="0 0 24 24" width="24" xmlns="http://www.w3.org/2000/svg"><path d="m2 2v10h-1v2h14v-2h-1v-10h-4v10h-4v-10z" fill="#bebebe" transform="translate(4 4)"/></svg>

<svg xmlns="http://www.w3.org/2000/svg" width="24" height="24" viewBox="0 0 24 24">
 <defs>
  <style id="current-color-scheme" type="text/css">
   .ColorScheme-Text { color:#bebebe; } .ColorScheme-Highlight { color:#4285f4; }
  </style>
 </defs>
 <path style="fill:currentColor" class="ColorScheme-Text" d="M 2 2 L 2 12 L 1 12 L 1 14 L 15 14 L 15 12 L 14 12 L 14 2 L 10 2 L 10 12 L 6 12 L 6 2 L 2 2 z" transform="translate(4 4)"/>
</svg>
